!!!!SEGMENT: pl-kk--kk-i-369_rozycki-jacek--jesu-corona-celsior.krn
!!!cenid: 16xx:785
!!!COM: Różycki, Jacek
!!!COM-rismID:
!!!CDT: ~1635-~1703
!!!CNT: Polish
!!!OTL: Jesu corona celsior
!!!PDT:
!!!AGN: Sacred
!!!SMS-siglum: PL-Kk
!!!SMS-shelfmark: Kk.I.369
!!!SMS-shelfwork: W
!!!SMS-variant:
!!!SMS-altvar:
!!!NIFC-rismSourceID: 1001142981
!!!NIFC-islandoraID: pl-kk:6032
!!!URL-pdf-islandora: https://repozytorium.nifc.pl/islandora/object/pl-kk%3A6032/datastream/PDF/view
!!!URL-scan: https://polish.musicsources.pl/pl/lokalizacje/galeria/rekopisy/5982 @EN{Scan on Polish Music Herritage in Open Access Website} @PL{Skany w portalu Dziedzictwo Muzyki Polskiej w otwartym dostępie}
!!!ONB-nifc:
!!!AIN: 1 alto 2 empty 1 tenor 1 vox
!!!key:
**kern	**text	**text	**kern	**text	**text	**kern	**text	**text	**kern	**text	**text	**kern	**text	**text
*part5	*part5	*part5	*part4	*part4	*part4	*part3	*part3	*part3	*part2	*part2	*part2	*part1	*part1	*part1
*staff5	*staff5	*staff5	*staff4	*staff4	*staff4	*staff3	*staff3	*staff3	*staff2	*staff2	*staff2	*staff1	*staff1	*staff1
*Iempty	*	*	*Iempty	*	*	*Itenor	*	*	*Ialto	*	*	*Ivox	*	*
*I"Baſso Ripieno.	*	*	*I"Baſso.	*	*	*I"Tenore	*	*	*I"Alto.	*	*	*I"Canto.	*	*
*I'B rip	*	*	*I'B	*	*	*I'T	*	*	*I'A	*	*	*I'C	*	*
*group2	*	*	*group1	*	*	*group1	*	*	*group1	*	*	*group1	*	*
*clefF4	*	*	*clefF4	*	*	*clefC4	*	*	*clefC3	*	*	*clefC1	*	*
*k[b-]	*	*	*k[b-]	*	*	*k[b-]	*	*	*k[b-]	*	*	*k[b-]	*	*
*F:	*	*	*F:	*	*	*F:	*	*	*F:	*	*	*F:	*	*
*M3/2	*	*	*M3/2	*	*	*M3/2	*	*	*M3/2	*	*	*M3/2	*	*
=1	=1	=1	=1	=1	=1	=1	=1	=1	=1	=1	=1	=1	=1	=1
*2\right	*	*	*2\right	*	*	*2\right	*	*	*2\right	*	*	*2\right	*	*
!LO:TX:t=P:problem=przy kluczu BB- B-	!	!	!LO:TX:t=P:problem=przy kluczu BB- B-	!	!	!LO:TX:t=P:problem=przy kluczu błędnie A-	!	!	!LO:TX:t=P:problem=przy kluczu błędnie A-	!	!	!LO:TX:t=P:problem=przy kluczu błędnie a-	!	!
2F\	JE-	.	2F\	JE-	.	2A/	JE-	.	2f\	JE-	.	2cc\	JE-	.
!LO:TX:t=P:global:problem=kreska pionowa na różnych liniach [rozdzielacz słów / znak oddechu]	!	!	!LO:TX:t=P:global:problem=kreska pionowa na różnych liniach [rozdzielacz słów / znak oddechu]	!	!	!	!	!	!	!	!	!	!	!
2E,\	-SU	.	2E,\	-SU	.	2G/	-SU	.	2g\	-SU	.	2cc\	-SU	.
2F\	Co-	.	2F\	Co-	.	2A/	Co-	.	2f\	Co-	.	2cc\	Co-	.
=2	=2	=2	=2	=2	=2	=2	=2	=2	=2	=2	=2	=2	=2	=2
1C	-ro-	.	1C	-ro-	.	1G	-ro-	.	1en	-ro-	.	(2.cc\	-ro-	.
.	.	.	.	.	.	.	.	.	.	.	.	4b-\)	.	.
2D/	-na	.	2D/	-na	.	2F/	-na	.	2d\	-na	.	2a\	-na	.
=3	=3	=3	=3	=3	=3	=3	=3	=3	=3	=3	=3	=3	=3	=3
2BB-/	cel-	.	2BB-/	cel-	.	1F	cel-	.	2d\	cel-	.	2b-\	cel-	.
2.C/	-ſi-	.	2.C/	-ſi-	.	.	.	.	2.c/	.	.	2.g\	.	.
!	!	!	!	!	!	!LO:TX:t=P:problem=brak kreski taktowej	!	!	!	!	!	!	!	!
.	.	.	.	.	.	2E/	-ſi-	.	.	.	.	.	.	.
4C/	.	.	4C/	.	.	.	.	.	4c/	-ſi-	.	4g\	-ſi-	.
=4	=4	=4	=4	=4	=4	=4-zz	=4	=4	=4	=4	=4	=4	=4	=4
!	!	!	!	!	!	!	!	!	!LO:TX:t=P:global:problem=kreska pionowa na różnych liniach [rozdzielacz słów / znak oddechu]	!	!	!LO:TX:t=P:global:problem=kreska pionowa na różnych liniach [rozdzielacz słów / znak oddechu]	!	!
1.FF	-or,	.	1.FF	-or	.	1.F	-or	.	1.c,	-or	.	1.a,	-or	.
=5	=5	=5	=5	=5	=5	=5	=5	=5	=5	=5	=5	=5	=5	=5
2F\	et	.	2F\	et	.	2A\	et	.	2f\	Et	.	2cc\	et	.
!LO:TX:a:t=6	!	!	!	!	!	!	!	!	!	!	!	!	!	!
2D\	Ve-	.	2D\	ve-	.	2d\	Ve-	.	2f\	Ve-	.	2ff\	Ve-	.
!LO:TX:a:t=r	!	!	!	!	!	!	!	!	!	!	!	!	!	!
2E-X\	-ri-	.	2E-X\	-ri-	.	2c\	-ri-	.	2g\	-ri-	.	2ee-X\	-ri-	.
=6	=6	=6	=6	=6	=6	=6	=6	=6	=6	=6	=6	=6	=6	=6
2.G\	-tas	.	1G	-tas	.	1Bn	-tas	.	1g	-tas	.	2dd,\	-tas	.
.	.	.	.	.	.	.	.	.	.	.	.	(2dd\	Sub-	.
4F\	.	.	.	.	.	.	.	.	.	.	.	.	.	.
!	!	!	!	!	!	!	!	!	!	!	!	!LO:TX:t=P:problem=brak kreski taktowej	!	!
2E-X\	sub-	.	2E-X\	sub-	.	2c\	sub-	.	2g\	sub-	.	2ee-X\)	.	.
=7	=7	=7	=7	=7	=7	=7	=7	=7	=7	=7	=7	=7-zz	=7	=7
2F\	-li-	.	2F\	-li-	.	1c	-li-	.	2a-X\	-li-	.	1dd	-li-	.
2G\	.	.	2G\	.	.	.	.	.	2.g\	.	.	.	.	.
!LO:TX:t=P:problem=brak kreski taktowej	!	!	!LO:TX:t=P:problem=brak kreski taktowej	!	!	!	!	!	!	!	!	!	!	!
2GG/	-mi-	.	2GG/	-mi-	.	2Bn\	-mi-	.	.	.	.	2dd\	-mi-	.
!	!	!	!	!	!	!	!	!	!LO:TX:t=P:problem=brak kreski taktowej	!	!	!	!	!
.	.	.	.	.	.	.	.	.	4g\	-mi-	.	.	.	.
!LO:LB:g=original	!	!	!	!	!	!	!	!	!	!	!	!LO:LB:g=original	!	!
=8	=8	=8	=8-zz	=8	=8	=8	=8	=8	=8-zz	=8	=8	=8	=8	=8
1.C	-or.	.	1.C	-or.	.	1.c	-or.	.	1.g	-or.	.	1.cc	-or.	.
!	!	!	!LO:LB:g=original	!	!	!LO:LB:g=original	!	!	!LO:LB:g=original	!	!	!	!	!
=9!|:	=9!|:	=9!|:	=9!|:	=9!|:	=9!|:	=9!|:	=9!|:	=9!|:	=9!|:	=9!|:	=9!|:	=9!|:	=9!|:	=9!|:
!	!	!	!	!	!	!LO:TX:t=P:problem=przy kluczu B-	!	!	!LO:TX:t=P:problem=przy kluczu B-	!	!	!LO:TX:t=P:problem=przy kluczu b-	!	!
2C/	Qui	.	(2C/	Qui	.	2G/	Qui	.	2en\	Qui	.	2cc\	Qui	.
2D/	con-	.	2D\)	con-	.	2B-\	con-	.	2d\	con-	.	2f/	con-	.
2En\	-fi-	.	2En\	-fi-	.	2B-\	-fi-	.	2c/	-fi-	.	2g\	-fi-	.
=10	=10	=10	=10	=10	=10	=10	=10	=10	=10	=10	=10	=10	=10	=10
1F	-ten-	.	1F	-ten-	.	4A/	-ten-	.	1c	-ten-	.	1a	-ten-	.
.	.	.	.	.	.	4G/	.	.	.	.	.	.	.	.
.	.	.	.	.	.	2F/	.	.	.	.	.	.	.	.
2BB-/	-ti	.	2BB-/	-ti	.	2F/	-ti	.	2d\	-ti	.	2b-\	-ti	.
=11	=11	=11	=11	=11	=11	=11	=11	=11	=11	=11	=11	=11	=11	=11
2.C/	Ser-	.	2.C/	Ser-	.	2.E/	Ser-	.	2.c\	Ser-	.	2.g\	Ser-	.
4C/	-vu-	.	4C/	-vu-	.	4E/	-vu-	.	4c\	-vu-	.	4g\	-vu-	.
2C/	-lo	.	2C/	-lo	.	2E/	-lo	.	2c\	-lo	.	2g\	-lo	.
=12	=12	=12	=12	=12	=12	=12	=12	=12	=12	=12	=12	=12	=12	=12
2AA/	red-	.	2AA/	red-	.	2c\	red-	.	2e\	red-	.	2cc\	red-	.
2BB-/	-dis	.	2BB-/	-dis	.	2B-X\	-dis	.	2g\	-dis	.	2dd\	-dis	.
2C/	pe-	.	2C/	pe-	.	2B-\	pe-	.	2g\	pe-	.	2ee\	pe-	.
=13	=13	=13	=13	=13	=13	=13	=13	=13	=13	=13	=13	=13	=13	=13
1D	-ren-	.	1D	-ren-	.	1A	-ren-	.	1fn	-ren-	.	1ff	-ren-	.
2AA/	-ne	.	2AA/	-ne	.	2A\	-ne	.	2f\	-ne	.	2cc\	-ne	.
=14	=14	=14	=14	=14	=14	=14	=14	=14	=14	=14	=14	=14	=14	=14
2BB-/	prae-	.	2BB-/	prae-	.	1G	prae-	.	1f	prae-	.	2dd\	prae-	.
2.C/	.	.	2.C/	.	.	.	.	.	.	.	.	2.cc\	.	.
!	!	!	!	!	!	!LO:TX:t=P:problem=brak kreski taktowej	!	!	!	!	!	!	!	!
.	.	.	.	.	.	2G/	-mi-	.	2e\	-mi-	.	.	.	.
4C/	-mi-	.	4C/	-mi-	.	.	.	.	.	.	.	4cc\	-mi-	.
=15	=15	=15	=15	=15	=15	=15-zz	=15	=15	=15	=15	=15	=15	=15	=15
!	!	!	!LO:N:vis=0.	!	!	!	!	!	!	!	!	!	!	!
!LO:N:vis=0	!	!	!LO:TX:b:t=Repetae	!	!	!	!	!	!	!	!	!	!	!
1.F	-um.	.	1.F	-um.	.	1.A	-um	.	1.f	-um	.	1.cc	-um	.
!LO:LB:g=original	!	!	!LO:LB:g=original	!	!	!LO:LB:g=original	!	!	!LO:LB:g=original	!	!	!LO:LB:g=original	!	!
=16:|!	=16:|!	=16:|!	=16:|!	=16:|!	=16:|!	=16:|!	=16:|!	=16:|!	=16:|!	=16:|!	=16:|!	=16:|!	=16:|!	=16:|!
*M2/2	*	*	*M2/2	*	*	*M2/2	*	*	*M2/2	*	*	*M2/2	*	*
*met(c|)	*	*	*met(c|)	*	*	*met(c|)	*	*	*met(c|)	*	*	*met(c|)	*	*
2r	.	.	2r	.	.	2r	.	.	2r	.	.	2r	.	.
2F\	Da	.	2F\	Da	.	2A\	Da	.	2f\	Da	.	2cc\	Da	.
=17	=17	=17	=17	=17	=17	=17	=17	=17	=17	=17	=17	=17	=17	=17
2E\	sup-	.	2E\	sup-	.	2G/	sup-	.	2g\	sup-	.	2cc\	sup-	.
2F\	-pli-	.	2F\	-pli-	.	2A/	-pli-	.	2f\	-pli-	.	2cc\	-pli-	.
=18	=18	=18	=18	=18	=18	=18	=18	=18	=18	=18	=18	=18	=18	=18
2BB-/	-can-	.	2BB-/	-can-	.	2F/	-can-	.	2d\	-can-	.	2b-\	-can-	.
2D/	-ti	.	2D/	-ti	.	2F/	-ti	.	2d\	-ti	.	2a\	-ti	.
=19	=19	=19	=19	=19	=19	=19	=19	=19	=19	=19	=19	=19	=19	=19
2BB-/	cae-	.	2BB-/	cae-	.	2.F/	cae-	.	2d\	cea-	.	2.g\	cae-	.
4C/	.	.	4C/	.	.	.	.	.	4.c/	.	.	.	.	.
4C/	-tu-	.	4C/	-tu-	.	4E/	-tu-	.	.	.	.	4g\	-tu-	.
.	.	.	.	.	.	.	.	.	8c/	-tu-	.	.	.	.
=20	=20	=20	=20	=20	=20	=20	=20	=20	=20	=20	=20	=20	=20	=20
!	!	!	!	!	!	!LO:TX:t=P:global:problem=kreska pionowa na różnych liniach [rozdzielacz słów / znak oddechu]	!	!	!	!	!	!	!	!
2FF,/	-i	.	2FF,/	-i	.	2F,/	-i	.	2c,\	-i	.	2a,\	-i	.
2F\	Hu-	.	2F\	Hu-	.	2A\	Hu-	.	2f\	Hu-	.	2cc\	hu-	.
=21	=21	=21	=21	=21	=21	=21	=21	=21	=21	=21	=21	=21	=21	=21
2D\	-jus	.	2D\	-jus	.	2B-,\	-jus	.	2f\	-jus	.	2dd\	-jus	.
2E-X\	ro-	.	2E-X\	ro-	.	2G/	ro-	.	2e-X\	ro-	.	2b-\	ro-	.
=22	=22	=22	=22	=22	=22	=22	=22	=22	=22	=22	=22	=22	=22	=22
!	!	!	!	!	!	!	!	!	!LO:SIC:v:s=2e-	!	!	!	!	!
2C/	-ga-	.	2C/	-ga-	.	2G/	-ga-	.	2e\	-ga-	.	2ee-X\	-ga-	.
2D\	-tu	.	2D/	-tu	.	2B-\	-tu	.	2f\	-tu	.	2dd\	-tu	.
=23	=23	=23	=23	=23	=23	=23	=23	=23	=23	=23	=23	=23	=23	=23
2E-X\	no-	.	2E-X\	no-	.	2.B-\	no-	.	2g\	no-	.	2.cc\	no-	.
4F\	.	.	4F\	.	.	.	.	.	4f\	.	.	.	.	.
4FF/	-xi-	.	4FF/	-xi-	.	4A\	-xi-	.	4f\	-xi-	.	4cc\	-xi-	.
!	!	!	!	!	!	!	!	!	!LO:LB:g=original	!	!	!	!	!
=24	=24	=24	=24	=24	=24	=24	=24	=24	=24	=24	=24	=24	=24	=24
2BB-,/	-i	.	2BB-,/	-i	.	2B-,\	-i	.	2f,\	-i	.	2dd\	-i	.
2GG/	re-	.	2GG/	re-	.	2d\	re-	.	2g\	re-	.	2b-\	re-	.
!LO:LB:g=original	!	!	!LO:LB:g=original	!	!	!	!	!	!	!	!	!	!	!
=25	=25	=25	=25	=25	=25	=25	=25	=25	=25	=25	=25	=25	=25	=25
2AA/	-miſ-	.	2AA/	-miſ-	.	2c\	-miſ-	.	2e-X\	-miſ-	.	2a\	-miſ-	.
2BB-/	-si-	.	2BB-/	-si-	.	2B-\	-si-	.	2d\	-si-	.	2g\	-si-	.
!	!	!	!	!	!	!LO:LB:g=original	!	!	!	!	!	!LO:LB:g=original	!	!
=26	=26	=26	=26	=26	=26	=26	=26	=26	=26	=26	=26	=26	=26	=26
2D\	-o-	.	2D\	-o-	.	2A/	-o-	.	2d\	-o-	.	2f#X/	-o-	.
2E-X\	-nem	.	2E-X\	-nem	.	2G/	-nem	.	2c\	-nem	.	2g/	-nem	.
=27	=27	=27	=27	=27	=27	=27	=27	=27	=27	=27	=27	=27	=27	=27
2.D\	Cri-	.	2.D\	Cri-	.	2.A/	Cri-	.	2.d\	Cri-	.	2.f#X/	Cri-	.
4D\	-mi-	.	4D\	-mi-	.	4A/	-mi-	.	4d\	-mi-	.	4f#/	-mi-	.
=28	=28	=28	=28	=28	=28	=28	=28	=28	=28	=28	=28	=28	=28	=28
2D,/	-nis,	.	2D,\	-nis	.	2F#X,/	-nis	.	2d,\	-nis	.	2a,\	-nis	.
2AA/	rum-	.	2AA/	rum-	.	2A/	rum-	.	2e-X\	rum-	.	2ccn\	rum-	.
=29	=29	=29	=29	=29	=29	=29	=29	=29	=29	=29	=29	=29	=29	=29
2BB-/	-pen-	.	2BB-X/	-pen-	.	2Fn/	-pen-	.	2d\	-pen-	.	2dd\	-pen-	.
2GG/	-do	.	2GG/	-do	.	2G/	-do	.	2d\	-do	.	2b-\	-do	.
=30	=30	=30	=30	=30	=30	=30	=30	=30	=30	=30	=30	=30	=30	=30
2FF/	ne-	.	2FF/	ne-	.	2A/	ne-	.	2f\	ne-	.	2cc\	ne-	.
2AA/	-xum	.	2AA/	-xum	.	2F/	-xum	.	2c/	-xum	.	2a\	-xum	.
=31	=31	=31	=31	=31	=31	=31	=31	=31	=31	=31	=31	=31	=31	=31
2.C/	Vin-	.	2.C/	Vin-	.	2.F/	vin-	.	2.c/	Vin-	.	2.g\	Vin-	.
4C/	-cu-	.	4C/	-cu-	.	4E/	-cu-	.	4c/	-cu-	.	4g\	-cu-	.
=32	=32	=32	=32	=32	=32	=32	=32	=32	=32	=32	=32	=32	=32	=32
!LO:N:vis=0	!	!	!LO:N:vis=0	!	!	!	!	!	!	!	!	!LO:N:vis=0	!	!
1F	-li.	.	1F;	-li	.	1F	-li.	.	1c	-li.	.	1a;	-li.	.
!LO:LB:g=original	!	!	!LO:LB:g=original	!	!	!	!	!	!LO:LB:g=original	!	!	!	!	!
=33||	=33||	=33||	=33||	=33||	=33||	=33||	=33||	=33||	=33||	=33||	=33||	=33||	=33||	=33||
*M3/2	*	*	*M3/2	*	*	*M3/2	*	*	*M3/2	*	*	*M3/2	*	*
2F\	An-	.	2F\	An-	.	2A/	An-	.	2f\	An-	.	2cc\	An-	.
2E\	-ni	.	2E\	-ni	.	2G/	-ni	.	2g\	-ni	.	2cc\	-ni	.
2F\	re-	.	2F\	re-	.	2A/	re-	.	2f\	re-	.	2cc\	re-	.
=34	=34	=34	=34	=34	=34	=34	=34	=34	=34	=34	=34	=34	=34	=34
1C	-ver-	.	1C	-ver-	.	1G	-ver-	.	1en	-ver-	.	(2.cc\	-ver-	.
.	.	.	.	.	.	.	.	.	.	.	.	4b-\)	.	.
2D\	-so	.	2D\	-so	.	2F/	-ſo	.	2d\	-ſo	.	2a\	-so	.
!	!	!	!	!	!	!LO:LB:g=original	!	!	!	!	!	!LO:LB:g=original	!	!
=35	=35	=35	=35	=35	=35	=35	=35	=35	=35	=35	=35	=35	=35	=35
2BB-/	tem-	.	2BB-/	tem-	.	1F	Tem-	.	2d\	tem-	.	2b-\	tem-	.
2.C/	.	.	2.C/	.	.	.	.	.	2.c/	.	.	2.g\	.	.
!	!	!	!	!	!	!LO:TX:t=P:problem=brak kreski taktowej	!	!	!	!	!	!	!	!
.	.	.	.	.	.	2E/	-po-	.	.	.	.	.	.	.
4C/	-po-	.	4C/	-po-	.	.	.	.	4c/	-po-	.	4g\	-po-	.
=36	=36	=36	=36	=36	=36	=36-zz	=36	=36	=36	=36	=36	=36	=36	=36
1.FF	-re	.	1.FF	-re	.	1.F	-re	.	1.c,	-re	.	1.a	-re	.
=37	=37	=37	=37	=37	=37	=37	=37	=37	=37	=37	=37	=37	=37	=37
2F\	Di-	.	2F\	Di-	.	2A\	di-	.	2f\	Di-	.	2cc\	Di-	.
2D\	-es	.	2D\	-es	.	2d\	-es	.	2f\	-es	.	2ff\	-es	.
2E-X\	re-	.	2E-X\	re-	.	2c\	re-	.	2g\	re-	.	2ee-X\	re-	.
=38	=38	=38	=38	=38	=38	=38	=38	=38	=38	=38	=38	=38	=38	=38
2.G\	-ful-	.	2.G\	-ful-	.	1Bn	-ful-	.	1g	-ful-	.	1dd	-ful-	.
4F\	.	.	4F\	.	.	.	.	.	.	.	.	.	.	.
2E-X\	-sit	.	2E-X\	-sit	.	2c\	-ſit	.	2g\	-ſit	.	2ee-X\	-ſit	.
=39	=39	=39	=39	=39	=39	=39	=39	=39	=39	=39	=39	=39	=39	=39
2F\	Lu-	.	2F\	Lu-	.	1c	Lu-	.	2a-X\	Lu-	.	1dd	Lu-	.
2G\	.	.	2G\	.	.	.	.	.	2.g\	.	.	.	.	.
!	!	!	!	!	!	!	!	!	!	!	!	!LO:TX:t=P:problem=brak kreski taktowej	!	!
2GG/	-mi-	.	2GG/	-mi-	.	2Bn\	-mi-	.	.	.	.	2dd\	-mi-	.
!	!	!	!	!	!	!	!	!	!LO:TX:t=P:problem=brak kreski taktowej	!	!	!	!	!
.	.	.	.	.	.	.	.	.	4g\	-mi-	.	.	.	.
=40	=40	=40	=40	=40	=40	=40	=40	=40	=40-zz	=40	=40	=40-zz	=40	=40
1.C	-ne	.	1.C	-ne	.	1.c	-ne	.	1.g	-ne	.	1.cc	-ne	.
!	!	!	!LO:LB:g=original	!	!	!	!	!	!LO:LB:g=original	!	!	!	!	!
=41!|:	=41!|:	=41!|:	=41!|:	=41!|:	=41!|:	=41!|:	=41!|:	=41!|:	=41!|:	=41!|:	=41!|:	=41!|:	=41!|:	=41!|:
2C/	Quo	.	2C/	Quo	.	2G/	Quo	.	2en\	Quo	.	2cc\	Quo	.
2D\	San-	.	2D\	San-	.	2B-\	San-	.	2d\	San-	.	2f/	san-	.
!LO:TX:a:t=♮	!	!	!	!	!	!	!	!	!	!	!	!	!	!
2En\	-ct(us)	.	2En\	-ct(us)	.	2B-\	-ct(us)	.	2c\	-ct(us)	.	2g\	-ct(us)	.
!LO:LB:g=original	!	!	!	!	!	!	!	!	!	!	!	!	!	!
=42	=42	=42	=42	=42	=42	=42	=42	=42	=42	=42	=42	=42	=42	=42
1F	hic	.	1F	hic	.	4A/	hic	.	1c	hic	.	1a	hic	.
.	.	.	.	.	.	4G/	.	.	.	.	.	.	.	.
.	.	.	.	.	.	2F/	.	.	.	.	.	.	.	.
2BB-/	de	.	2BB-/	de	.	2F/	de	.	2d\	de	.	2b-\	de	.
=43	=43	=43	=43	=43	=43	=43	=43	=43	=43	=43	=43	=43	=43	=43
2.C/	Cor-	.	2.C/	Cor-	.	2.E/	Cor-	.	2.c/	Cor-	.	2.g\	Cor-	.
4C/	-po-	.	4C/	-po-	.	4E/	-po-	.	4c/	-po-	.	4g\	-po-	.
2C/	-re	.	2C/	-re	.	2E/	-re	.	2c/	-re	.	2g\	-re	.
!	!	!	!	!	!	!LO:LB:g=original	!	!	!	!	!	!LO:LB:g=original	!	!
=44	=44	=44	=44	=44	=44	=44	=44	=44	=44	=44	=44	=44	=44	=44
2AA/	mi-	Chris-	2AA/	mi-	X-	2c\	mi-	Chris-	2e\	mi-	Chris-	2cc\	mi-	Chris-
2BB-/	-gra-	-ti	2BB-/	-gra-	-ti	2B-X\	-gra-	-ti	2g\	-gra-	-ti	2dd\	-gra-	-ti
2C/	-vit	re-	2C/	-vit	re-	2B-\	-vit	re-	2g\	-vit	re-	2ee\	-vit	re-
=45	=45	=45	=45	=45	=45	=45	=45	=45	=45	=45	=45	=45	=45	=45
1D	in-	-ce-	1D	in-	-ce-	1A	in-	-ce-	1fn	in-	-ce-	1ff	in-	-ce-
2AA/	-ter	-pit	2AA/	-ter	-pit	2A\	-ter	-pit	2f\	-ter	-pit	2cc\	-ter	-pit
=46	=46	=46	=46	=46	=46	=46	=46	=46	=46	=46	=46	=46	=46	=46
2BB-/	Si-	Sti-	2BB-/	si-	sti-	1G	si-	Sti-	1f	si-	sti-	2dd\	si-	Sti-
2.C/	-de-	-gma-	2.C/	-de-	-gma-	.	.	.	.	.	.	2.cc\	.	.
!	!	!	!	!	!	!LO:TX:t=P:problem=brak kreski taktowej	!	!	!LO:TX:t=P:problem=brak kreski taktowej	!	!	!	!	!
.	.	.	.	.	.	2G/	-de-	-gma-	2e\	-de-	-gma-	.	.	.
!LO:TX:t=P:problem=brak kreski taktowej	!	!	!	!	!	!	!	!	!	!	!	!	!	!
4C/	.	.	4C/	.	.	.	.	.	.	.	.	4cc\	-de-	-gma-
=47-zz	=47	=47	=47	=47	=47	=47-zz	=47	=47	=47-zz	=47	=47	=47	=47	=47
!LO:N:vis=0	!	!	!	!	!	!	!	!	!	!	!	!	!	!
1.F;	-ra	-ta	1.F	-ra	-ta	1.A	-ra	-ta	1.f	-ra	-ta	1.cc	-ra	-ta
!	!	!	!LO:LB:g=original	!	!	!	!	!	!	!	!	!	!	!
=48:|!	=48:|!	=48:|!	=48:|!	=48:|!	=48:|!	=48:|!	=48:|!	=48:|!	=48:|!	=48:|!	=48:|!	=48:|!	=48:|!	=48:|!
*M2/2	*	*	*M2/2	*	*	*M2/2	*	*	*M2/2	*	*	*M2/2	*	*
*met(c|)	*	*	*met(c|)	*	*	*met(c|)	*	*	*met(c|)	*	*	*met(c|)	*	*
2r	.	.	2r	.	.	2r	.	.	2r	.	.	2r	.	.
2F\	Vir-	.	2F\	Vir-	.	2A\	Vir-	.	2f\	Vir-	.	2cc\	Vir-	.
=49	=49	=49	=49	=49	=49	=49	=49	=49	=49	=49	=49	=49	=49	=49
2D\	-tu-	.	2D/	-tu-	.	2A\	-tu-	.	2f\	-tu-	.	2dd\	-tu-	.
2C#X/	-te	.	2C#X/	-te	.	2A\	-te	.	2e\	-te	.	2een\	-te	.
!	!	!	!	!	!	!	!	!	!LO:LB:g=original	!	!	!	!	!
=50	=50	=50	=50	=50	=50	=50	=50	=50	=50	=50	=50	=50	=50	=50
2D\	cla-	.	2D/	cla-	.	2A\	cla-	.	2f\	cla-	.	2dd\	cla-	.
4AA/	-r(us)	.	4AA/	-rus	.	4A\	-r(us)	.	4e\	-r(us)	.	4cc#X,\	-r(us)	.
4AA/	et	.	4AA/	et	.	4c#X\	et	.	4e\	et	.	4b-\	et	.
!LO:LB:g=original	!	!	!	!	!	!	!	!	!	!	!	!	!	!
=51	=51	=51	=51	=51	=51	=51	=51	=51	=51	=51	=51	=51	=51	=51
1BB-	Fi-	.	1BB-	Fi-	.	1d	Fi-	.	1d	Fi-	.	(2a\	Fi-	.
*	*	*	*	*	*	*	*	*	*	*	*	*custos:a	*	*
.	.	.	.	.	.	.	.	.	.	.	.	2g\)	.	.
!	!	!	!	!	!	!	!	!	!	!	!	!LO:LB:g=original	!	!
=52	=52	=52	=52	=52	=52	=52	=52	=52	=52	=52	=52	=52	=52	=52
4AA,/	-de	.	4AA,/	-de	.	4c#X,\	-de	.	4e,\	-de	.	4a\	-de	.
4F\	Con-	.	4F\	Con-	.	4cn\	Con-	.	4f\	Con-	.	4a\	Con-	.
4F\	-feſ-	.	4F\	-feſ-	.	4c\	-feſ-	.	4f\	-feſ-	.	4a\	-feſ-	.
4F\	-si-	.	4F\	-si-	.	4c\	-si-	.	4f\	-si-	.	4a\	-si-	.
!	!	!	!	!	!	!LO:LB:g=original	!	!	!	!	!	!	!	!
=53	=53	=53	=53	=53	=53	=53	=53	=53	=53	=53	=53	=53	=53	=53
2C/	-o-	.	2C/	-o-	.	2c\	-o-	.	2en\	-o-	.	2g\	-o-	.
2GG/	-ne	.	2GG/	-ne	.	2d\	-ne	.	2g\	-ne	.	2b-X\	-ne	.
=54	=54	=54	=54	=54	=54	=54	=54	=54	=54	=54	=54	=54	=54	=54
2.D\	se-	.	2.D\	se-	.	2.d\	se-	.	2g\	se-	.	2.a\	se-	.
.	.	.	.	.	.	.	.	.	4.f#X\	.	.	.	.	.
4D\	-du-	.	4D\	-du-	.	4A/	-du-	.	.	.	.	4a\	-du-	.
.	.	.	.	.	.	.	.	.	8f#\	-du-	.	.	.	.
=55	=55	=55	=55	=55	=55	=55	=55	=55	=55	=55	=55	=55	=55	=55
4D,/	-lus	.	4D,/	-l(us)	.	4A,\	-l(us).	.	4f#X,\	-lus	.	4a,\	-lus	.
4BB-/	Je-	.	4BB-/	je-	.	4B-X\	Je-	.	4fn\	Je-	.	4dd\	Je-	.
4BB-/	-ju-	.	4BB-/	-ju-	.	4B-\	-ju-	.	4f\	-ju-	.	4dd\	-ju-	.
4BB-/	-na	.	4BB-/	-na	.	4B-\	-na	.	4f\	-na	.	4dd\	-na	.
!	!	!	!LO:LB:g=original	!	!	!	!	!	!	!	!	!	!	!
=56	=56	=56	=56	=56	=56	=56	=56	=56	=56	=56	=56	=56	=56	=56
2F\	mem-	.	2F\	mem-	.	2A\	mem-	.	2f\	mem-	.	2cc\	mem-	.
2E-X\	-bra	.	2E-X\	-bra	.	2c\	-bra	.	2g\	-bra	.	2ee-X\	-bra	.
=57	=57	=57	=57	=57	=57	=57	=57	=57	=57	=57	=57	=57	=57	=57
2.G\	de-	.	2.G\	de-	.	2.c\	de-	.	2.g\	de-	.	2.dd\	de-	.
4GG/	-fe-	.	4GG/	-fe-	.	4Bn\	-fe-	.	4g\	-fe-	.	4dd\	-fe-	.
!	!	!	!	!	!	!	!	!	!LO:LB:g=original	!	!	!	!	!
=58	=58	=58	=58	=58	=58	=58	=58	=58	=58	=58	=58	=58	=58	=58
4C,/	-rens	.	4C,/	-rens	.	4c,\	-rens	.	4e,\	-rens	.	4cc,\	-rens	.
4AA/	da-	.	4AA/	da-	.	4c\	da-	.	4f\	da-	.	4cc\	da-	.
4AA/	-pes	.	4AA/	-pes	.	4c\	-pes	.	4f\	-pes	.	4cc\	-pes	.
4AA/	su-	.	4AA/	su-	.	4c\	su-	.	4f\	su-	.	4cc\	su-	.
!LO:LB:g=original	!	!	!	!	!	!	!	!	!	!	!	!	!	!
=59	=59	=59	=59	=59	=59	=59	=59	=59	=59	=59	=59	=59	=59	=59
2BB-/	-per-	.	2BB-/	-per-	.	2F/	-per-	.	2d\	-per-	.	2b-\	-per-	.
2F\	-nas	.	2FF/	-nas	.	2F/	-nas	.	2c\	-nas	.	2a\	-nas	.
!	!	!	!	!	!	!	!	!	!	!	!	!LO:LB:g=original	!	!
=60	=60	=60	=60	=60	=60	=60	=60	=60	=60	=60	=60	=60	=60	=60
2.C/	ob-	.	2.C/	ob-	.	2.F/	ob-	.	2.c/	ob-	.	2.g\	ob-	.
4C/	-ti-	.	4C/	-ti-	.	4E/	-ti-	.	4c/	-ti-	.	4g\	-ti-	.
=61	=61	=61	=61	=61	=61	=61	=61	=61	=61	=61	=61	=61	=61	=61
!LO:N:vis=0	!	!	!LO:N:vis=0	!	!	!	!	!	!	!	!	!LO:N:vis=0	!	!
1F;	-net.	.	1F;	-net.	.	1F	-net	.	1c	-net.	.	1a;	-net.	.
!	!	!	!	!	!	!LO:LB:g=original	!	!	!	!	!	!	!	!
=62||	=62||	=62||	=62||	=62||	=62||	=62||	=62||	=62||	=62||	=62||	=62||	=62||	=62||	=62||
*M3/2	*	*	*M3/2	*	*	*M3/2	*	*	*M3/2	*	*	*M3/2	*	*
2F\	Pa-	.	2F\	Pa-	.	2A\	Pa-	.	2f\	Pa-	.	2cc\	Pa-	.
2E\	-tri	.	2E\	-tri	.	2G/	-tri	.	2g\	-tri	.	2cc\	-tri	.
2F\	pe-	.	2F\	pe-	.	2A\	pe-	.	2f\	pe-	.	2cc\	pe-	.
=63	=63	=63	=63	=63	=63	=63	=63	=63	=63	=63	=63	=63	=63	=63
1C	-ren-	.	1C	-ren-	.	1G	-ren-	.	1en	-ren-	.	(2.cc\	-ren-	.
.	.	.	.	.	.	.	.	.	.	.	.	4b-\)	.	.
2D/	-nis	.	2D\	-nis	.	2F/	-nis	.	2d\	-nis	.	2a,\	-nis	.
=64	=64	=64	=64	=64	=64	=64	=64	=64	=64	=64	=64	=64	=64	=64
2BB-/	glo-	.	(2BB-/	glo-	.	1F	glo-	.	2d\	glo-	.	(2b-\	glo-	.
2.C/	.	.	2.C/)	.	.	.	.	.	2.c/	.	.	2.g\)	.	.
.	.	.	.	.	.	2E/	-ri-	.	.	.	.	.	.	.
!	!	!	!LO:TX:t=P:problem=brak kreski taktowej	!	!	!	!	!	!	!	!	!	!	!
4C/	-ri-	.	4C/	-ri-	.	.	.	.	4c/	-ri-	.	4g\	-ri-	.
=65	=65	=65	=65-zz	=65	=65	=65	=65	=65	=65	=65	=65	=65	=65	=65
1.FF	-a	.	1.FF,	-a	.	1.F,	-a	.	1.c,	-a	.	1.a,	-a	.
=66	=66	=66	=66	=66	=66	=66	=66	=66	=66	=66	=66	=66	=66	=66
2F\	Na-	.	2F\	Na-	.	2A\	Na-	.	2f\	Na-	.	2cc\	Na-	.
2D\	-to-	.	2D\	-to-	.	2d\	-to-	.	2f\	-to-	.	2ff\	-to-	.
2E-X\	-que	.	2E-X\	-que	.	2c\	-q(ue)	.	2g\	-q(ue)	.	2ee-X\	-q(ue)	.
=67	=67	=67	=67	=67	=67	=67	=67	=67	=67	=67	=67	=67	=67	=67
1G	Pa-	.	(2.G\	Pa-	.	1Bn	Pa-	.	1g	[Pa-	.	1dd	Pa-	.
.	.	.	4F\)	.	.	.	.	.	.	.	.	.	.	.
!	!	!	!	!	!	!LO:TX:t=P:problem=brak kreski taktowej	!	!	!	!	!	!	!	!
2E-X\	-tris	.	2E-X\	-tris	.	2c\	-tris	.	2g\	-tris]	.	2ee-X\	-tris	.
!LO:LB:g=original	!	!	!	!	!	!	!	!	!LO:LB:g=original	!	!	!	!	!
=68	=68	=68	=68	=68	=68	=68-zz	=68	=68	=68	=68	=68	=68	=68	=68
2F\	u-	.	2F\	U-	.	1c	U-	.	2a-X\	U-	.	1dd	u-	.
2G\	.	.	2G\	.	.	.	.	.	2.g\	.	.	.	.	.
!	!	!	!	!	!	!LO:TX:t=P:problem=brak kreski taktowej	!	!	!	!	!	!	!	!
2GG/	-ni-	.	2GG/	-ni-	.	2Bn\	-ni-	.	.	.	.	2dd\	-ni-	.
!	!	!	!	!	!	!	!	!	!LO:TX:t=P:problem=brak kreski taktowej	!	!	!	!	!
.	.	.	.	.	.	.	.	.	4g\	-ni-	.	.	.	.
=69	=69	=69	=69	=69	=69	=69-zz	=69	=69	=69-zz	=69	=69	=69	=69	=69
*	*	*	*custos:C	*	*	*	*	*	*	*	*	*	*	*
1.C	-co	.	1.C,	-co	.	1.c	-co	.	1.g	-co	.	1.cc	-co	.
!	!	!	!LO:PB:g=original	!	!	!LO:PB:g=original	!	!	!	!	!	!LO:LB:g=original	!	!
=70!|:	=70!|:	=70!|:	=70!|:	=70!|:	=70!|:	=70!|:	=70!|:	=70!|:	=70!|:	=70!|:	=70!|:	=70!|:	=70!|:	=70!|:
2C\	San-	.	2C/	San-	.	2G/	San-	.	2en\	San-	.	2cc\	San-	.
2D\	-cto-	.	2D\	-cto-	.	2B-\	-cto-	.	2d\	-cto-	.	2f/	-cto-	.
2En\	-que	.	2En\	-que	.	2B-\	-que	.	2c\	-q(ue)	.	2g/	-q(ue)	.
=71	=71	=71	=71	=71	=71	=71	=71	=71	=71	=71	=71	=71	=71	=71
1F	sit	.	1F	sit	.	4A/	sit	.	1c	sit	.	1a,	sit	.
.	.	.	.	.	.	4G/	.	.	.	.	.	.	.	.
.	.	.	.	.	.	2F/	.	.	.	.	.	.	.	.
2BB-/	Pa-	.	2BB-/	Pa-	.	2F/	Pa-	.	2d\	Pa-	.	2b-\	Pa-	.
=72	=72	=72	=72	=72	=72	=72	=72	=72	=72	=72	=72	=72	=72	=72
2.C/	-ra-	.	2.C/	-ra-	.	2.E/	-ra-	.	2.c\	-ra-	.	2.g/	-ra-	.
4C/	-cli-	.	4C/	-cli-	.	4E/	-cli-	.	4c\	-cli-	.	4g/	-cli-	.
2C/	-to	.	2C/	-to	.	2E/	-to	.	2c\	-to	.	2g,/	-to	.
=73	=73	=73	=73	=73	=73	=73	=73	=73	=73	=73	=73	=73	=73	=73
2AA/	per	.	2AA/	per	.	2c\	per	.	2e\	per	.	2cc\	per	.
2BB-/	om-	.	2BB-/	om-	.	2B-X\	om-	.	2g\	om-	.	2dd\	om-	.
2C/	-ne	.	2C/	-ne	.	2B-\	-ne	.	2g\	-ne	.	2ee\	-ne	.
=74	=74	=74	=74	=74	=74	=74	=74	=74	=74	=74	=74	=74	=74	=74
1D	sem-	.	1D	sem-	.	1A	sem-	.	1fn	sem-	.	1ff	sem-	.
2AA/	-per	.	2AA/	-per	.	2A\	-per	.	2f\	-per	.	2cc\	-per	.
=75	=75	=75	=75	=75	=75	=75	=75	=75	=75	=75	=75	=75	=75	=75
2BB-/	sae-	.	2BB-/	sae-	.	1G	sae-	.	1f	sae-	.	2dd\	sae-	.
2.C/	-cu-	.	2.C/	-cu-	.	.	.	.	.	.	.	2.cc\	.	.
!	!	!	!	!	!	!LO:TX:t=P:problem=brak kreski taktowej	!	!	!	!	!	!	!	!
.	.	.	.	.	.	2G/	-cu-	.	2e\	-cu-	.	.	.	.
!LO:TX:t=P:problem=brak kreski taktowej	!	!	!	!	!	!	!	!	!	!	!	!	!	!
4C/	.	.	4C/	.	.	.	.	.	.	.	.	4cc\	-cu-	.
=76-zz	=76	=76	=76	=76	=76	=76-zz	=76	=76	=76	=76	=76	=76	=76	=76
!LO:N:vis=0	!	!	!	!	!	!	!	!	!	!	!	!	!	!
1.F;	-lu(m)	.	1.FF	-lum	.	1.A	-lum	.	1.f	-lum	.	1.cc	-lum	.
!	!	!	!LO:LB:g=original	!	!	!LO:LB:g=original	!	!	!	!	!	!	!	!
=77:|!	=77:|!	=77:|!	=77:|!	=77:|!	=77:|!	=77:|!	=77:|!	=77:|!	=77:|!	=77:|!	=77:|!	=77:|!	=77:|!	=77:|!
!LO:TX:t=P:problem=brak kreski taktowej	!	!	!LO:TX:t=P:problem=brak kreski taktowej	!	!	!LO:TX:t=P:problem=brak kreski taktowej	!	!	!	!	!	!LO:TX:t=P:problem=brak kreski taktowej	!	!
1.BB-	A-	.	1.BB-	A-	.	1.B-	A-	.	1.f	A-	.	1.dd	A-	.
=78-zz	=78	=78	=78-zz	=78	=78	=78-zz	=78	=78	=78	=78	=78	=78-zz	=78	=78
!LO:TX:t=P:problem=fermata above/below	!	!	!	!	!	!	!	!	!	!	!	!	!	!
!LO:N:vis=0	!	!	!LO:N:vis=0	!	!	!	!	!	!LO:N:vis=0	!	!	!LO:N:vis=0	!	!
1.F;;	-men.	.	1.F;	-men.	.	1.A	-men	.	1.f;	-men	.	1.cc;	-men	.
==	==	==	==	==	==	==	==	==	==	==	==	==	==	==
*-	*-	*-	*-	*-	*-	*-	*-	*-	*-	*-	*-	*-	*-	*-
!!!system-decoration: [(g1)][(g2)]
!!!ENC: Anna Matuszewska
!!!END: 2021-02-27
!!!ENC: Andrzej Kubiczek
!!!END: 2021-02-16
